X:175
T:Animal Comedians. Ru2.175, The
%%VWML:RutherfordVol2-2249-p88-0
F:http://www.vwml.org/record/RutherfordVol2/2249/p88
Z:vmp.Ruairidh Greig 2015 www.village-music-project.org.uk
M:2/4
L:1/8
Q:1/4=100
K:D
dD2f|edce|dD2f|{f}ed/c/d2|dD2f|edce|dcBA|(c/B/A/^G/)A2:|
|:aA2a|a/g/f/g/ aA|gfed|e/d/c/B/A2|dAeA|fAgA|{g}fe/d/ {f}ed/c/|{c}d2D2:|
M:3/4
Q:3/4=50
K:Dm
|:(D2F2)A2|(d2e2)f2|egfd^cd|{d}e4A2|(B2A2)G2|(A2^c2)d2|efg2f2|"tr"f2e4:|
|:(agf)ga2|F6|(gfe)fg2|G6|fedefg|e2a2g2|f/e/df2e2|d6:|
W:Foot it and cast off 2 Couples .| Foot it & cast up again
W::| Cross over 2 Couples Lead up to the Top foot it to your
W:Partner The first Man goes the Minuet Step quite round
W:with the 2d. Woman the first Woman the same with the 2d.
W:Man then the same all 4 round :|| Then the Man Leads his
W:Partner round into the 2d. Couples place :|
T:Sigr. Spoonatissimo. Ru2.176
B:RUTHERFORD Complete Collection of 200 Country Dances Vol.2; 1759.
Z:vmp.Ruairidh Greig 2015 www.village-music-project.org.uk
M:6/8
L:1/8
Q:1/4=100
K:G
GAB"tr"B3|gdB "tr"B3|GAB "tr"B3|gfe dcB|
GAB "tr"B3|gdBB3|gbd egB|caB"tr"A3:|
|:GAc d2e|dBg dBg|GAB dBg|deBd3|
GAB d2e|eBg def|gbd egB|def g3:|
W:Cast off and Hands round 4 with
W:the 3d. Couple .| Cast up & Hands
W:round 4 with the first Couple :|
W:Cross over 2 Couples Lead up to
W:the Top foot it and cast off :|
